X:1
T:Wilton, 11.6.11.6
T:Wilton, 11.6.11.6
T:Arthur Henry Mann (1850-1929)
T:Public Domain Courtesy of the Cyber Hymnal™
C:Arthur Henry Mann (1850-1929)
Z:Public Domain
Z:Courtesy of the Cyber Hymnal™
%%score ( 1 2 ) ( 3 4 )
L:1/8
Q:1/4=115
M:4/4
K:Eb
V:1 treble 
V:2 treble 
V:3 bass 
V:4 bass 
V:1
 [B,B]4 [EG]2 [DF]2 | [CE]4 [DF]4 | [EG]2 [EB]2 [EA]2 [Ec]2 | [Ec]4 [EB]2 [FB]2 | %4
 [Ee]4 [Fd]2 [Gc]2 | B6 z2 =A2 x2 | [DB]6 [DB]2 | [EB]4 [EG]2 [DF]2 | [CE]4 G4 | %9
 [Ee]2 [Fd]2 [Gc]2 [G=B]2 | [F=B]4 [Ec]2 [Fd]2 | [Ee]4 [EB]2 [FA]2 | G6 z2 F2 | E8 |] %14
V:2
 x8 | x8 | x8 | x8 | x8 | F4 E4 x4 | x8 | x8 | x4 C2 D2 | x8 | x8 | x8 | E4 D4 x2 | E8 |] %14
V:3
 [E,G,]4 [E,B,]2 [B,,A,]2 | [C,G,]4 [B,,B,]4 | [E,B,]2 [_D,G,]2 [C,A,]2 [A,,A,]2 | %3
 [E,A,]4 [E,G,]2 [D,B,]2 | [C,C]4 [D,=B,]2 [E,C]2 | B,4 z2 x6 | [B,,B,]6 [B,,A,]2 | %7
 [E,G,]4 [B,,B,]2 [B,,A,]2 | [C,G,]4 [E,G,]2 [D,=B,]2 | [C,C]2 [D,=B,]2 [E,C]2 [G,D]2 | %10
 [A,D]4 [A,C]2 [A,_C]2 | [G,B,]4 [G,_D]2 [A,C]2 | z4 z2 A,2 x2 | [E,G,]8 |] %14
V:4
 x8 | x8 | x8 | x8 | x8 | F,6 (C4 F,2) | x8 | x8 | x8 | x8 | x8 | x8 | B,6 B,,4 | x8 |] %14

